X:1
T:Confitebor tibi Domine
T:Andrea Stella
T:Source : Ghirlanda Sacra---Venetia---Ang.Gardano (B.Magni)---1625. Editor : André Vierendeels (25/12/16).
T:Notes : Original clefs : C1, F4 Editorial accidentals above the staff m 19 in BC :"A" notated as "G" in original print Music collected by Leonardo Simonetti   
T:Confitebor tibi Domine
T:©
T:©
T:©
T:©
T:©
T:©
C:Andrea Stella
Z:©
%%score 1 2
L:1/8
Q:1/4=121
M:4/4
K:F
V:1 treble nm="Soprano" snm="S"
V:2 bass nm="MusicXML Part"
V:1
 z4 A4- | A2 G2 A4 | A4 z2 dd | dccd B2 Bc | A4 A4 | z4 z2 A2 | BAGF E4 | D4 z4 | z2 d2 _edcB | %9
w: Con-|* fi- te-|bor, con- fi-|te- bor ti- bi Do- mi- ne|De- us|in|to- to cor- de me-|o,|in to- to cor- de|
 A8 | G8 | A3 A AAGG | A3 A A2 A2- | AA F2 E4 | E4 z4 | z4 z2 d2 | _edcB A4 | G4 z2 A2 | BAGF E4 | %19
w: me-|o,|con- fi- te- bor ti- bi|Do- mi- ne, Do-|* mi- ne De-|us|in|to- to cor- de me-|o, in|to- to cor- de me-|
 D4 z AAB | c6 B2 | A8 | G8 | z4 z2 c2 | BABG A3 B | c3 d d4 | c8 | z2 d2 cBcA | B3 B B2 B2 | %29
w: o, in to- to|cor- de|me-|o|et|ho- no- ri- fi- ca- bo|no- men tu-|um,|et ho- no- ri- fi-|ca- bo no- men|
 c4 d4 | ^F2 G2 A4 | G8 | z2 AG AGAB | c4 c2 A2 | B2 c2 d4- | d2 cB c2 A2 | B6 G2 | A2 d4 ^c2 | %38
w: tu- um|in ae- ter-|num,|qui- * * * * *|* a mi-|se- ri- cor-|* di- a tu- a,|Do- mi-|ne, ma- gna|
 d4 cB BA/G/ | A3 A G4 | z4 z GAB | c4 AABc | d4 B2 _e2- | e2 dc c4 | B4 z GAB | c4 cABc | %46
w: est su- * * * *|* per me|et li- be-|ra- sti, et li- be-|ra- sti a-|* ni- mam me-|am, et li- be-|ra- sti a- ni- mam|
 d4 B2 c2- | c2 BA A4 | G8 | c2 B2 A2 G2 | F2 FF E4 | D4 z2 G2 | GFGA BABG | A4 z2 =B2- | %54
w: me- am, a-|* ni- mam me-|am|ex in- fer- no|in- fe- ri- o-|ri, in|di- * * * * * * *|e tri-|
 B2 =B2 c2 B2 | c3 c d4 | G4 z2 c2 | c4 c4 | z2 d2 _e4 | d4 z2 c2- | c2 c2 B2 A2 | G3 G F4 | %62
w: * bu- la- ti-|o- nis me-|ae, cla-|ma- vi,|cla- ma-|vi, qui-|* a ex- au-|di- sti me,|
 z2 F2 c3 d | _e4 d2 d2- | d2 d2 c2 B2 | A3 A G4 | z2 c4 A2- | A2 d4 B2 | A6 A2 | G8 |] %70
w: cla- ma- *|* vi qui-|* a ex- au-|di- sti me,|qui- a|_ ex- au-|di- sti|me.|
V:2
"^BC" D,6 ^C,2 | D,2 B,,2 A,,4 | A,,4 D,4 | D,4 _E,3 C, | D,4 D,2 D,2 | _E,D,C,B,, A,,4 | %6
 G,,4 A,,2 A,,2 | B,,A,,G,,F,, E,,4 | D,,2 D,2 C,4 | D,8 | G,,8 | D,6 B,,2 | A,,3 A,, A,,4 | %13
 D,4 A,,4 | A,,2 A,,2 B,,A,,G,,F,, | E,,4 D,,2 D,2 | C,4 D,2 D,2 | _E,D,C,B,, A,,4 | G,,4 A,,4 | %19
 D,D,D,E, F,4- | F,D,E,F, G,2 G,,2 | D,8 | G,,4 C,2 C,2 | B,,A,,B,,G,, A,,4 | G,,4 F,,4 | %25
 E,,2 F,,2 G,,4 | C,2 F,2 E,D,E,C, | D,2 B,,2 A,,4 | G,,2 G,2 _E,2 D,2 | _E,2 F,2 B,,3 C, | D,8 | %31
 G,,8 | F,,8 | F,,6 F,2 | D,2 C,2 B,,4 | A,,8 | G,,4 _E,4 | D,C,B,,A,, G,,2 A,,2 | D,4 _E,4 | %39
 D,3 C, =B,,2 C,2 | G,,G,,A,,B,, C,4 | C,A,,B,,C, D,4 | D,B,,C,D, _E,2 C,2 | F,8 | %44
 B,,B,,C,D, _E,4 | _E,C,D,E, F,4- |"^(b)" F,D,E,F, G,2 C,2 | D,8 | G,,4 C,2 B,,2 | %49
 A,,2 G,,2 F,2 E,2 | D,4 A,,4 | D,4 G,,4 | C,4 G,,4 | D,4 G,,2 G,2 | E,4 A,2 G,2 | F,2 E,2 D,4 | %56
 C,4 F,4 | E,4 F,4 | D,4 C,4 | G,,4 C,4 | F,,4 G,,2 A,,2 | B,,2 C,2 F,,4 | F,4 E,2 F,2 | C,4 D,4 | %64
 G,,4 A,,2 B,,2 | C,2 D,2 G,,2 G,2 | E,4 F,4 | D,4 G,,4 | D,8 | G,,8 |] %70

